X: 160365
T: Planxty Phelim Meehan 
N: 148
C: BB
R: jig
Q: 1/8=320
M: 6/8
L: 1/8
K: G
D | "G"DEG BAB | "Em7"edB "Am7"AGE | "G"DEG BAB | "Em7"edB "D"d3  |
"G"DEG BAB | "Em7"edB "Am7"AGE | "G"GAB "C"GEG | "D"DB,A, "G"G,2 :|
d | "G"gfe dBG | "Em"BdB "Am7"AGE | "G"gfe "D"dBA | "G"GBd "Em"e2 d |
"G"gfe dBG | "Em"BdB "Am7"AGE | "G"DEG "D7"Adc | "G"BGF "G"G2 :|
e |"G"gdd Bdd | "C"gfe "G"dBd | "G"gdd "Am"cBA | "G"GBd "Em"e2 d |
"G"gdd Bdd | "C"gfe "D"dBA | "G"GAB "C"GEG |"D"DB,A, "G"G,2 :|
